X:53
T: Szőlőhegyen keresztül...
K: F
M: 2/4
L: 1/4
g f/d/ g f
g f/d/ g f
g/ d c/ | d d | 
c B/G/ | c/c/ B | 
c B/G/ | c/c/ B | 
c/ G F/ | G G | 

